images/icon-behance.svg

<svg xmlns="http://www.w3.org/2000/svg" id="Behance" viewBox="0 0 128 128" width="128" height="128"><style>.st0{fill:#65737e}.st1{fill-rule:evenodd;clip-rule:evenodd;fill:#fff}</style><circle id="behance-back" cx="64" cy="64" r="64" class="st0"/><path id="behance-behance" d="M48.6 66.5H37.1v12.1h11.3c3.9 0 7-1.2 7-5.8-.1-4.5-2.6-6.3-6.8-6.3zm-1.5-17.6h-10v10.3h10.7c3.4 0 6-1.5 6-5.2 0-4.3-3.2-5.1-6.7-5.1zm18.3 24c0 8.9-7.7 12.8-15.7 12.8H28.2V41.4h20.9c8.5 0 14.2 3 14.2 11.2 0 4.3-2.2 7.3-6 9.2 5.4 1.5 8.1 5.7 8.1 11.1zm10.5-28.5h17.8v5.9H75.9v-5.9zm8 15.2c-5.6 0-7.2 3.1-7.3 5.6H91c-.8-4.5-2.8-5.6-7.1-5.6zm-7.3 11.3c.2 5.5 3 9.1 7.9 9.1 3.6 0 6.8-2.9 7.4-4.9h7.8c-2.5 7.5-8.2 11.5-15.4 11.5-10.1 0-16.5-6.9-16.5-16.8 0-9.5 6.8-16.8 16.5-16.8 11 0 16.3 8.1 15.6 17.9H76.6z" class="st1"/></svg>

<?xml version="1.0" encoding="utf-8"?>
<!-- Generator: Adobe Illustrator 23.0.1, SVG Export Plug-In . SVG Version: 6.00 Build 0)  -->
<svg version="1.1" id="Behance" xmlns="http://www.w3.org/2000/svg" xmlns:xlink="http://www.w3.org/1999/xlink" x="0px" y="0px"
	 viewBox="0 0 128 128" style="enable-background:new 0 0 128 128;" xml:space="preserve">
<style type="text/css">
	.st0{fill:#65737E;}
	.st1{fill-rule:evenodd;clip-rule:evenodd;fill:#FFFFFF;}
</style>
<g>
	<circle id="behance-back" class="st0" cx="64" cy="64" r="64"/>
	<path id="behance-behance" class="st1" d="M48.6,66.5H37.1v12.1h11.3c3.9,0,7-1.2,7-5.8C55.3,68.3,52.8,66.5,48.6,66.5z M47.1,48.9
		h-10v10.3h10.7c3.4,0,6-1.5,6-5.2C53.8,49.7,50.6,48.9,47.1,48.9z M65.4,72.9c0,8.9-7.7,12.8-15.7,12.8H28.2V41.4h20.9
		c8.5,0,14.2,3,14.2,11.2c0,4.3-2.2,7.3-6,9.2C62.7,63.3,65.4,67.5,65.4,72.9z M75.9,44.4h17.8v5.9H75.9V44.4z M83.9,59.6
		c-5.6,0-7.2,3.1-7.3,5.6H91C90.2,60.7,88.2,59.6,83.9,59.6z M76.6,70.9c0.2,5.5,3,9.1,7.9,9.1c3.6,0,6.8-2.9,7.4-4.9h7.8
		c-2.5,7.5-8.2,11.5-15.4,11.5c-10.1,0-16.5-6.9-16.5-16.8c0-9.5,6.8-16.8,16.5-16.8c11,0,16.3,8.1,15.6,17.9H76.6z"/>
</g>
</svg>
